assets/svg/linkedin.svg

<svg height="34" viewBox="0 0 34 34" width="34" xmlns="http://www.w3.org/2000/svg"><path d="m34 2.5v29a2.5 2.5 0 0 1 -2.5 2.5h-29a2.5 2.5 0 0 1 -2.5-2.5v-29a2.5 2.5 0 0 1 2.5-2.5h29a2.5 2.5 0 0 1 2.5 2.5zm-24 10.5h-5v16h5zm.45-5.5a2.88 2.88 0 0 0 -2.86-2.9h-.09a2.9 2.9 0 0 0 0 5.8 2.88 2.88 0 0 0 2.95-2.81zm18.55 11.78c0-4.81-3.06-6.68-6.1-6.68a5.7 5.7 0 0 0 -5.06 2.58h-.14v-2.18h-4.7v16h5v-8.51a3.32 3.32 0 0 1 3-3.58h.19c1.59 0 2.77 1 2.77 3.52v8.57h5z"/></svg>

<?xml version="1.0" encoding="iso-8859-1"?>
<svg xmlns="http://www.w3.org/2000/svg" width="34" height="34" viewBox="0 0 34 34" class="global-nav__logo">
    <g>
        <path d="M34,2.5v29A2.5,2.5,0,0,1,31.5,34H2.5A2.5,2.5,0,0,1,0,31.5V2.5A2.5,2.5,0,0,1,2.5,0h29A2.5,2.5,0,0,1,34,2.5ZM10,13H5V29h5Zm.45-5.5A2.88,2.88,0,0,0,7.59,4.6H7.5a2.9,2.9,0,0,0,0,5.8h0a2.88,2.88,0,0,0,2.95-2.81ZM29,19.28c0-4.81-3.06-6.68-6.1-6.68a5.7,5.7,0,0,0-5.06,2.58H17.7V13H13V29h5V20.49a3.32,3.32,0,0,1,3-3.58h.19c1.59,0,2.77,1,2.77,3.52V29h5Z"/>
    </g>
</svg>
